**harmony	**harte	**kern	**silbe	**rhyme	**timestamp	**phrase
*M4/4	*M4/4	*ICvox	*	*	*	*
*	*	*VRlead	*	*	*	*
*	*	*Hstimme	*	*	*	*
*D-:	*D-:	*D-:	*	*	*	*
*	*	*M4/4	*	*	*	*
*	*	*clefG2	*	*	*	*
1r;	1r	r;	.	.	0	.
=1	=1	=1	=1	=1	=1	=1
*>Letter>B	*>Letter>B	*>Letter>B	*>Letter>B	*>Letter>B	*>Letter>B	*>Letter>B
*>Label>Intro	*>Label>Intro	*>Label>Intro	*>Label>Intro	*>Label>Intro	*>Label>Intro	*>Label>Intro
2D-M	D-:maj	1r	.	.	0.458	newline
2D-M	D-:maj6	.	.	.	1.343	.
=2	=2	=2	=2	=2	=2	=2
2D-MM	D-:maj7	1r	.	.	2.229	.
2D-M	D-:maj6	.	.	.	3.114	.
=3	=3	=3	=3	=3	=3	=3
2D-M	D-:maj	1r	.	.	4	.
2D-M	D-:maj6	.	.	.	4.885	.
=4	=4	=4	=4	=4	=4	=4
2D-MM	D-:maj7	2r	.	.	5.77	.
2D-M	D-:maj6	4r	.	.	6.656	.
.	.	4a-	I	.	.	.
=5	=5	=5	=5	=5	=5	=5
*>Letter>A	*>Letter>A	*>Letter>A	*>Letter>A	*>Letter>A	*>Letter>A	*>Letter>A
*>Label>Verse	*>Label>Verse	*>Label>Verse	*>Label>Verse	*>Label>Verse	*>Label>Verse	*>Label>Verse
2D-M	D-:maj	2dd-	want	.	7.541	newline
2D-M	D-:maj6	4.cc	you	.	8.438	.
.	.	8cc	to	.	.	.
=6	=6	=6	=6	=6	=6	=6
2D-MM	D-:maj7	4b-	tell	.	9.334	.
.	.	4a-	me	.	.	.
2D-M	D-:maj6	4g	why	.	10.231	.
.	.	4a-	you	.	.	.
=7	=7	=7	=7	=7	=7	=7
2D-M	D-:maj	4r	.	.	11.127	.
.	.	4b-	walked	.	.	.
2D-M	D-:maj6	8.f	out	.	12.024	.
.	.	8.f	on	.	.	.
.	.	[8f	me	.	.	.
=8	=8	=8	=8	=8	=8	=8
2D-MM	D-:maj7	2f]	_	.	12.92	.
2D-M	D-:maj6	2r	.	.	13.817	.
=9	=9	=9	=9	=9	=9	=9
2D-M	D-:maj	2.dd-	I'm	.	14.714	newline
2D-M	D-:maj6	.	.	.	15.611	.
.	.	4cc	so	.	.	.
=10	=10	=10	=10	=10	=10	=10
2D-MM	D-:maj7	4b-	lone-	.	16.509	.
.	.	4a-	-some	.	.	.
2D-M	D-:maj6	4.cc	ev-	.	17.407	.
.	.	[8a-	-ery	.	.	.
=11	=11	=11	=11	=11	=11	=11
2A-Mm	A-:7	4a-]	_	.	18.304	.
.	.	4g-	day	A	.	.
2A-Mm	A-:9	[2a-	_	.	19.202	.
=12	=12	=12	=12	=12	=12	=12
2A-Mm	A-:7	2.a-]	_	.	20.1	.
2A-Mm	A-:9	.	.	.	20.998	.
.	.	4a-	I	.	.	.
=13	=13	=13	=13	=13	=13	=13
2A-Mm	A-:7	2ee-	want	.	21.895	newline
2A-Mm	A-:9	4.dd-	you	.	22.793	.
.	.	8dd-	to	.	.	.
=14	=14	=14	=14	=14	=14	=14
2A-Mm	A-:7	4cc	know	.	23.691	.
.	.	4a-	that	.	.	.
2A-Mm	A-:9	4g	since	.	24.589	.
.	.	4a-	you	.	.	.
=15	=15	=15	=15	=15	=15	=15
2A-Mm	A-:7	4r	.	.	25.487	.
.	.	4b-	walked	.	.	.
2A-Mm	A-:9	8.a-	out	.	26.384	.
.	.	8.b-	on	.	.	.
.	.	[8a-	me	.	.	.
=16	=16	=16	=16	=16	=16	=16
2A-Mm	A-:7	2a-]	_	.	27.282	.
2A-Mm	A-:9	2r	.	.	28.18	.
=17	=17	=17	=17	=17	=17	=17
2A-Mm	A-:7	4b-	No-	.	29.078	newline
.	.	4cc	-thin'	.	.	.
2A-Mm	A-:9	4.a-	seems	.	29.964	.
.	.	[8cc	to	.	.	.
=18	=18	=18	=18	=18	=18	=18
2A-Mm	A-:7	8cc]	_	.	30.849	.
.	.	4a-	be	.	.	.
.	.	4b-	the	.	.	.
2A-Mm	A-:9	.	.	.	31.735	.
.	.	4g-	same	.	.	.
.	.	[8a-	old	.	.	.
=19	=19	=19	=19	=19	=19	=19
2D-M	D-:maj	8a-]	_	.	32.621	.
.	.	[8f	way	A	.	.
.	.	2.f]	_	.	.	.
2D-M	D-:maj6	.	.	.	33.507	.
=20	=20	=20	=20	=20	=20	=20
2D-MM	D-:maj7	1r	.	.	34.392	.
2D-M	D-:maj6	.	.	.	35.278	.
=21	=21	=21	=21	=21	=21	=21
2D-M	D-:maj	4.dd-	Think	.	36.164	newline
.	.	8dd-	a-	.	.	.
2D-M	D-:maj6	4.cc	-bout	.	37.064	.
.	.	8cc	the	.	.	.
=22	=22	=22	=22	=22	=22	=22
2D-MM	D-:maj7	4b-	love	.	37.964	.
.	.	4a-	that	.	.	.
2D-M	D-:maj6	4g	burns	.	38.863	.
.	.	8a-	with	.	.	.
.	.	[8b-	in	.	.	.
=23	=23	=23	=23	=23	=23	=23
2D-M	D-:maj	4b-]	_	.	39.763	.
.	.	8f	my	.	.	.
.	.	[8f	heart	.	.	.
2D-M	D-:maj6	4f]	_	.	40.663	.
.	.	8e	for	.	.	.
.	.	[8f	you	.	.	.
=24	=24	=24	=24	=24	=24	=24
2D-MM	D-:maj7	2f]	_	.	41.563	.
2D-M	D-:maj6	8r	.	.	42.463	.
.	.	8f	The	.	.	.
.	.	4e-	good	.	.	.
=25	=25	=25	=25	=25	=25	=25
2D-M	D-:maj	4d-	times	.	43.362	newline
.	.	4e-	we	.	.	.
2D-M	D-:maj6	4f	had	.	44.253	.
.	.	8r	.	.	.	.
.	.	[8a-	be	.	.	.
=26	=26	=26	=26	=26	=26	=26
2D-MM	D-:maj7	8a-]	_	.	45.143	.
.	.	4a-	fore	.	.	.
.	.	8a-	you	.	.	.
2D-M	D-:maj6	4.a-	went	.	46.034	.
.	.	8a-	a-	.	.	.
=27	=27	=27	=27	=27	=27	=27
2G-M	G-:maj	2b-	-way	A	46.924	.
2D-M	D-:maj/3	2a-	oh	.	47.814	.
=28	=28	=28	=28	=28	=28	=28
1E-m	E-:min	2.g-	me	.	48.705	.
.	.	4r	.	.	.	.
=29	=29	=29	=29	=29	=29	=29
1G-M	G-:maj6	4g-	Walk	.	50.486	newline
.	.	4ee-	right	.	.	.
.	.	4.ee-	back	.	.	.
.	.	8ee-	to	.	.	.
=30	=30	=30	=30	=30	=30	=30
1G-M	G-:maj6	4ee-	me	.	52.289	.
.	.	4dd-	this	.	.	.
.	.	8cc	mi-	(B	.	.
.	.	8b-	-nute	b)	.	.
.	.	4r	.	.	.	.
=31	=31	=31	=31	=31	=31	=31
1D-M	D-:maj	8r	.	.	54.092	.
.	.	4dd-	Bring	.	.	.
.	.	8dd-	your	.	.	.
.	.	4dd-	love	.	.	.
.	.	8r	.	.	.	.
.	.	8dd-	to	.	.	.
=32	=32	=32	=32	=32	=32	=32
1D-M	D-:maj	8dd-	me	.	55.896	.
.	.	4.cc	don't	.	.	.
.	.	4b-	send	(B	.	.
.	.	4a-	it	b)	.	.
=33	=33	=33	=33	=33	=33	=33
2A-Mm	A-:7	2cc	I'm	.	57.699	.
2A-Mm	A-:9	2b-	so	.	58.601	.
=34	=34	=34	=34	=34	=34	=34
2A-Mm	A-:7	4a-	lone-	.	59.503	.
.	.	4g-	-some	.	.	.
2A-Mm	A-:9	4b-	ev-	.	60.404	.
.	.	4c	-ery	.	.	.
=35	=35	=35	=35	=35	=35	=35
2D-M	D-:maj	1d-	day	A	61.306	newline
2D-M	D-:maj6	.	.	.	62.205	.
=36	=36	=36	=36	=36	=36	=36
2D-MM	D-:maj7	1r	.	.	63.105	.
2D-M	D-:maj6	.	.	.	64.004	.
=37	=37	=37	=37	=37	=37	=37
2D-M	D-:maj	1r	.	.	64.904	.
2D-M	D-:maj6	.	.	.	65.803	.
=38	=38	=38	=38	=38	=38	=38
2D-MM	D-:maj7	2r	.	.	66.702	.
2D-M	D-:maj6	4r	.	.	67.602	.
.	.	4a-	I	.	.	.
=39	=39	=39	=39	=39	=39	=39
*>Letter>A	*>Letter>A	*>Letter>A	*>Letter>A	*>Letter>A	*>Letter>A	*>Letter>A
*>Label>Verse	*>Label>Verse	*>Label>Verse	*>Label>Verse	*>Label>Verse	*>Label>Verse	*>Label>Verse
2D-M	D-:maj	2dd-	want	.	68.501	newline
2D-M	D-:maj6	4.cc	you	.	69.393	.
.	.	8cc	to	.	.	.
=40	=40	=40	=40	=40	=40	=40
2D-MM	D-:maj7	4b-	tell	.	70.285	.
.	.	4a-	me	.	.	.
2D-M	D-:maj6	4g	why	.	71.177	.
.	.	4a-	you	.	.	.
=41	=41	=41	=41	=41	=41	=41
2D-M	D-:maj	4r	.	.	72.069	.
.	.	4b-	walked	.	.	.
2D-M	D-:maj6	8.f	out	.	72.96	.
.	.	8.f	on	.	.	.
.	.	[8f	me	.	.	.
=42	=42	=42	=42	=42	=42	=42
2D-MM	D-:maj7	2f]	_	.	73.852	.
2D-M	D-:maj6	2r	.	.	74.744	.
=43	=43	=43	=43	=43	=43	=43
2D-M	D-:maj	2.dd-	I'm	.	75.636	newline
2D-M	D-:maj6	.	.	.	76.52	.
.	.	4cc	so	.	.	.
=44	=44	=44	=44	=44	=44	=44
2D-MM	D-:maj7	4b-	lone-	.	77.404	.
.	.	4a-	-some	.	.	.
2D-M	D-:maj6	4.cc	ev-	.	78.288	.
.	.	[8a-	-ery	.	.	.
=45	=45	=45	=45	=45	=45	=45
2A-Mm	A-:7	4a-]	_	.	79.172	.
.	.	4g-	day	A	.	.
2A-Mm	A-:9	[2a-	_	.	80.056	.
=46	=46	=46	=46	=46	=46	=46
2A-Mm	A-:7	2.a-]	_	.	80.94	.
2A-Mm	A-:9	.	.	.	81.824	.
.	.	4a-	I	.	.	.
=47	=47	=47	=47	=47	=47	=47
2A-Mm	A-:7	2ee-	want	.	82.708	newline
2A-Mm	A-:9	4.dd-	you	.	83.595	.
.	.	8dd-	to	.	.	.
=48	=48	=48	=48	=48	=48	=48
2A-Mm	A-:7	4cc	know	.	84.483	.
.	.	4a-	that	.	.	.
2A-Mm	A-:9	4g	since	.	85.371	.
.	.	4a-	you	.	.	.
=49	=49	=49	=49	=49	=49	=49
2A-Mm	A-:7	4r	.	.	86.259	.
.	.	4b-	walked	.	.	.
2A-Mm	A-:9	8.a-	out	.	87.147	.
.	.	8.b-	on	.	.	.
.	.	[8a-	me	.	.	.
=50	=50	=50	=50	=50	=50	=50
2A-Mm	A-:7	2a-]	_	.	88.034	.
2A-Mm	A-:9	2r	.	.	88.922	.
=51	=51	=51	=51	=51	=51	=51
2A-Mm	A-:7	4b-	No-	.	89.81	newline
.	.	4cc	-thin'	.	.	.
2A-Mm	A-:9	4.a-	seems	.	90.702	.
.	.	[8cc	to	.	.	.
=52	=52	=52	=52	=52	=52	=52
2A-Mm	A-:7	8cc]	_	.	91.594	.
.	.	4a-	be	.	.	.
.	.	4b-	the	.	.	.
2A-Mm	A-:9	.	.	.	92.485	.
.	.	4g-	same	.	.	.
.	.	[8a-	old	.	.	.
=53	=53	=53	=53	=53	=53	=53
2D-M	D-:maj	8a-]	_	.	93.377	.
.	.	[8f	way	A	.	.
.	.	2.f]	_	.	.	.
2D-M	D-:maj6	.	.	.	94.269	.
=54	=54	=54	=54	=54	=54	=54
2D-MM	D-:maj7	1r	.	.	95.16	.
2D-M	D-:maj6	.	.	.	96.052	.
=55	=55	=55	=55	=55	=55	=55
2D-M	D-:maj	4.dd-	Think	.	96.944	newline
.	.	8dd-	a-	.	.	.
2D-M	D-:maj6	4.cc	-bout	.	97.824	.
.	.	8cc	the	.	.	.
=56	=56	=56	=56	=56	=56	=56
2D-MM	D-:maj7	4b-	love	.	98.705	.
.	.	4a-	that	.	.	.
2D-M	D-:maj6	4g	burns	.	99.585	.
.	.	8a-	with-	.	.	.
.	.	[8b-	-in	.	.	.
=57	=57	=57	=57	=57	=57	=57
2D-M	D-:maj	4b-]	_	.	100.466	.
.	.	8f	my	.	.	.
.	.	[8f	heart	.	.	.
2D-M	D-:maj6	4f]	_	.	101.346	.
.	.	8e	for	.	.	.
.	.	[8f	you	.	.	.
=58	=58	=58	=58	=58	=58	=58
2D-MM	D-:maj7	2f]	_	.	102.227	.
2D-M	D-:maj6	8r	.	.	103.108	.
.	.	8f	The	.	.	.
.	.	4e-	good	.	.	.
=59	=59	=59	=59	=59	=59	=59
2D-M	D-:maj	4d-	times	.	103.988	newline
.	.	4e-	we	.	.	.
2D-M	D-:maj6	4f	had	.	104.871	.
.	.	8r	.	.	.	.
.	.	[8a-	be	.	.	.
=60	=60	=60	=60	=60	=60	=60
2D-MM	D-:maj7	8a-]	_	.	105.754	.
.	.	4a-	fore	.	.	.
.	.	8a-	you	.	.	.
2D-M	D-:maj6	4.a-	went	.	106.637	.
.	.	8a-	a-	.	.	.
=61	=61	=61	=61	=61	=61	=61
2G-M	G-:maj	2b-	-way	A	107.52	.
2D-M	D-:maj/3	2a-	Oh	.	108.403	.
=62	=62	=62	=62	=62	=62	=62
1E-m	E-:min	2.g-	me	.	109.287	.
.	.	4r	.	.	.	.
=63	=63	=63	=63	=63	=63	=63
1G-M	G-:maj6	4g-	Walk	.	111.053	newline
.	.	4ee-	right	.	.	.
.	.	4.ee-	back	.	.	.
.	.	8ee-	to	.	.	.
=64	=64	=64	=64	=64	=64	=64
1G-M	G-:maj6	4ee-	me	.	112.849	.
.	.	4dd-	this	.	.	.
.	.	8cc	mi-	(B	.	.
.	.	8b-	-nute	b)	.	.
.	.	4r	.	.	.	.
=65	=65	=65	=65	=65	=65	=65
1D-M	D-:maj	8r	.	.	114.645	.
.	.	4dd-	Bring	.	.	.
.	.	8dd-	your	.	.	.
.	.	4dd-	love	.	.	.
.	.	8r	.	.	.	.
.	.	8dd-	to	.	.	.
=66	=66	=66	=66	=66	=66	=66
1D-M	D-:maj	8dd-	me	.	116.44	.
.	.	4.cc	don't	.	.	.
.	.	4b-	send	(B	.	.
.	.	4a-	it	b)	.	.
=67	=67	=67	=67	=67	=67	=67
2A-Mm	A-:7	2cc	I'm	.	118.236	.
2A-Mm	A-:9	2b-	so	.	119.134	.
=68	=68	=68	=68	=68	=68	=68
2A-Mm	A-:7	4a-	lone-	.	120.032	.
.	.	4g-	-some	.	.	.
2A-Mm	A-:9	4b-	ev-	.	120.93	.
.	.	4c	-ery	.	.	.
=69	=69	=69	=69	=69	=69	=69
2D-M	D-:maj	1d-	day	A	121.828	newline
2D-M	D-:maj6	.	.	.	122.725	.
=70	=70	=70	=70	=70	=70	=70
2D-MM	D-:maj7	1r	.	.	123.621	.
2D-M	D-:maj6	.	.	.	124.517	.
=71	=71	=71	=71	=71	=71	=71
2A-Mm	A-:7	2cc	I'm	.	125.414	.
2A-Mm	A-:9	2b-	so	.	126.31	.
=72	=72	=72	=72	=72	=72	=72
2A-Mm	A-:7	4a-	lone-	.	127.207	.
.	.	4g-	-some	.	.	.
2A-Mm	A-:9	4b-	ev-	.	128.103	.
.	.	4c	-ery	.	.	.
=73	=73	=73	=73	=73	=73	=73
*>Label>>Fadeout	*>Label>>Fadeout	*>Label>>Fadeout	*>Label>>Fadeout	*>Label>>Fadeout	*>Label>>Fadeout	*>Label>>Fadeout
2D-M	D-:maj	1d-	day	.	128.999	newline
2D-M	D-:maj6	.	.	.	129.907	.
=74	=74	=74	=74	=74	=74	=74
2D-MM	D-:maj7	1r	.	.	130.815	.
2D-M	D-:maj6	.	.	.	131.722	.
1r;	1r	r;	.	.	136.941	.
1r;	1r	r;	.	.	138.945	.
*-	*-	*-	*-	*-	*-	*-
!!!BillboardChartDate: 1961/05/01
!!!BillboardPeak: 7
!!!BillboardWeeksOnChart: 13
!!!COC: The Everly Brothers
!!!ENC: Nathaniel Condit-Schultz
!!!EST: Awating manual error checking and editing.
!!!OTL: Walk Right Back
!!!RDF**chordsym: original McGill chord annotation + (implied pitch class set, with bass pitch in first position)
!!!RDF**harmony: **recip + pitch class of root + harmonic quality
!!!RDF**leadinstrument: original McGill primary instrumentation annotation
!!!RDF**phrase: newline = linebreak in original McGill transcription
!!!RDF**timestamp: McGill audio timestamp in seconds
!!!RDT: 2017/01/12/
!!!SampleActualRank: 50
!!!SampleID#: 0153
!!!SampleTargetRank: 52
!!!MBID: bd83e90f-6aa1-4c70-a621-c6f95a583e61
